/* XPM */
static const char *eye_16_gray[] = {
"16 16 82 1 0 0",
"  c #E11515",
"! c #E51515",
"# c #EB1616",
"$ c #E21515",
"% c #DD1414",
"& c #EE1616",
"' c #E41313",
"( c #E21113",
") c #E31313",
"* c #FB1717",
"+ c #DE1414",
", c #DA1414",
"- c #FF1717",
"/ c #DD1515",
"0 c #F61616",
"1 c #DB1414",
"2 c #CF1616",
"3 c #E30D0D",
"4 c #9A2929",
"5 c #455152",
"6 c #524E4F",
"7 c #534F4F",
"8 c #514B4B",
"9 c #494646",
": c #CB1616",
"; c #FC1717",
"< c #E01212",
"= c #D51717",
"> c #3C4D4D",
"? c #A83F3F",
"@ c #EF0605",
"A c #AF4E52",
"B c #5788A2",
"C c #567994",
"D c #84919D",
"E c #949394",
"F c #6A6767",
"G c #40494A",
"H c #DF1212",
"I c #E40F0F",
"J c #983939",
"K c #8E9C9B",
"L c #E4F0F1",
"M c #D27175",
"N c #E90000",
"O c #A86780",
"P c #08A4FA",
"Q c #288FD9",
"R c #BFCDD8",
"S c #EEE9E9",
"T c #8E9C9D",
"U c #E10D0D",
"V c #B27D7D",
"W c #EDF7F6",
"X c #FCF9F9",
"Y c #8EBFDA",
"Z c #F30000",
"[ c #774E75",
"] c #009EFF",
"^ c #8AAECA",
"_ c #FDF9F9",
"` c #ECF6F7",
"a c #ECF7F7",
"b c #8CAFCA",
"c c #0AA4FF",
"d c #774D75",
"e c #F90100",
"f c #795380",
"g c #81BADA",
"h c #FFFAF9",
"i c #EDF6F6",
"j c #BECDD8",
"k c #288ED9",
"l c #019BFA",
"m c #F00000",
"n c #D17175",
"o c #85929D",
"p c #567894",
"q c #4A83A2",
"r c #AF4D52",
"s c #554F4F",
". c None",
"................",
"..... !##!$.....",
"...%&'(..')*+...",
"..,-/.......01..",
"..&23456789.:;..",
".<=>?@ABCDEFG=H.",
".IJKLMNOPQRSTJI.",
".UVWXYOZ[]^_`VU.",
".UVaXbcdefghiVU.",
".IJTSjklfmnLKJI.",
".H=GFEopqr@?>=<.",
"..;:.987s5432&..",
"..10......./-,..",
"...+*)'..('&%...",
".....$!##! .....",
"................"
};
